X:0468
T:Ferguson's Rant.
M:C
L:1/8
Q:1/2=104
I: :: :: % first repeat partly un-inked, could be :|
Z:Jack Campin * www.campin.me.uk * 2009
K:G
d/c/  |TB2(AG) (DG)(BG)|(FA)(dA) DGBG|TB2AG (DG)(BG)|TB2A2 A2
dc    | BGDG    cAFA   | dBGB    ecAf| gfed  cBAd   |TB2G2 G2::
(g/a/)| bgdg    Bdgd   | gdBg    BdgB| cedc  BGdB   | c2BA A2
dc    | BGDG    cAFA   | dBGB    ecAf| gfed  BdAd   | B2G2 G2:|
<end>
<start>
